**kern	**kern	**dynam
*part1	*part1	*part1
*staff2	*staff1	*
*I"Piano	*	*
*clefF4	*clefG2	*
*k[f#c#]	*k[f#c#]	*
=1	=1	=1
4.B	4.d 4.g	.
4A	4d 4f# 4a	.
8G	8d 8g 8b	.
=	=	=
2GG; 2G	2e; 2a 2cc#	sf
8r	8r	.
8r	8a	.
=	=	=
*tremolo	*	*
*	*tremolo	*
8FF# 8AA 8D 8F#L	8d 8f# 8a 8ddL	f
8FF# 8AA 8D 8F#	8d 8f# 8a 8dd	.
8FF# 8AA 8D 8F#	8d 8f# 8a 8dd	.
8FF# 8AA 8D 8F#	8d 8f# 8a 8dd	.
8FF# 8AA 8D 8F#	8d 8f# 8a 8dd	.
8FF# 8AA 8D 8F#J	8d 8f# 8a 8ddJ	.
=	=	=
!	!	!LO:DY:a
8GG 8BB 8D 8EL	8d 8e 8b 8ddL	>
8GG 8BB 8D 8E	8d 8e 8b 8dd	.
8GG 8BB 8D 8EJ	8d 8e 8b 8ddJ	.
8GGL 8BB 8D 8E	8dL 8e 8b 8dd	.
8GGG 8GG	8d 8e 8b 8dd	.
8GGGJ 8GG	8dJ 8e 8b 8dd	.
=	=	=
!	!	!LO:DY:a
8AAA 8AAL	8d 8e 8b 8ddL	mp
8AAA 8AA	8d 8e 8b 8dd	.
8AAA 8AAJ	8d 8e 8b 8ddJ	.
8AAAL 8AA	8c#L 8e 8a 8cc#	]
8AAA 8AA	8c# 8e 8a 8cc#	.
8AAAJ 8AA	8c#J 8e 8a 8cc#	.
=	=	=
8AAA#X 8AA#X	8c#L 8e 8f# 8cc#	.
8AA#L 8F#	8c# 8e 8f#	.
8AA#J 8F#	8c#J 8e 8f#	.
*^	*	*
8A#XL	8FF#L	8eL 8f#	.
8B	8GG#X	8e 8f#	.
8c#J	8AA#XJ	8eJ 8f#	.
*v	*v	*	*
=	=	=
!	!	!LO:DY:a
8BBL	8B 8d 8f#L	mf
8BB	8B 8d 8f#	.
8BBJ	8B 8d 8f#J	.
8AAn 8D 8AnL	8cn 8d 8f# 8ccnL	.
8AAn 8D 8An	8cn 8d 8f# 8ccn	.
8AAn 8D 8AnJ	8cn 8d 8f# 8ccnJ	.
*	*Xtremolo	*
*Xtremolo	*	*
=	=	=
!	!	!LO:DY:a
4GG: 4D: 4G:	4B: 4d: 4g: 4b:	f
8r	8r	.
4r	4r	.
8r	8r	.
=	=	=
*-	*-	*-
!!!system-decoration: {(s1,s2)}
